X: 1
T:An Ro/gaire Dubh
T:The Black Rogue
T:Paddy McNicolas
T:Paddy's Own
S:Robbie Hannan and Paddy Glackin on Whirlwind
D:Shanachie 79093, 1995
N:Setting originally from John Doherty. Diplomatic transcription of 1st time through by Alan Ng w/o cuts
Z: id:ng-jigs-26 transcribed by Alan Ng agng@facstaff.wisc.edu 22 Sept. 2000
R:jig
M:6/8
K:DMaj
d|cAA BGB|cAA AAd|cAA BGB|AFD DdB|cAA BGB|cAA AGF|\
~G3 BGB|1AFD DdB:|2AFD DAd||fgf ~g3|afd cAd|faf gfg|\
afd d(3def|agf gfe|fed e2d|cAA BGB|AFD DAd||\
fgf ~g3|afd cAd|~f3 ~g3|afd dfg|\
agf gfe|fed ~e2d|cAA BGG|ABc dcd||**
